X: 1015
T: Waynesboro
B: jims roots
B: ralph
M:C|
L:1/8
Q: 1/4=100
K:G
V:1 
GE | "G"DEGA BGBd | edgd edBG | "Am"EAAB AGED | EGAB "D"A2 (D2 |
"G"D)EGA Bdef | gfga gedB | "D"ABGA BGAG | "G"EGGA "G2 :|
|: ga | "G"b2bg "D"a2af | "G"gage dBAG | "Am"ea-aa abag | "D"egab a2ga |
"G"b2bg "D"a2af | "G"gage dBAG | "D"ABGA BGAG | "G"EGGA G2 :|
% abcbook-tune_id 6298c29745737f24ad83d25d


% abcbook-boost 0
% abcbook-tablature 
% abcbook-transpose 
% abcbook-lastupdated 1665486421797
% abcbook-soundfonts 
% abcbook-repeats 1


